src/banks/nationwide.svg

<svg width="256" height="256" viewBox="0 0 256 256" fill="none" xmlns="http://www.w3.org/2000/svg">
<path d="M0 0H256V256H0V0Z" fill="#1A468E"/>
<path d="M172.477 144.153C175.858 144.153 179.264 142.768 181.809 140.348C184.472 137.822 186 134.354 186 130.836V98.6874C186 94.8637 184.622 91.5456 181.908 88.8444L163.932 70.8552C163.208 70.1753 162.753 69.2147 162.753 68.1418V48.6366C162.753 45.2558 161.412 42.0686 158.979 39.6669C156.565 37.2904 153.39 35.9805 150.028 35.9805H135.9C128.995 35.9805 123.375 41.6567 123.375 48.6363V49.6967H123.368C123.349 50.3829 122.788 50.9318 122.096 50.9318V50.938H119.987C117.567 50.938 115.085 51.8924 113.17 53.564C112.06 54.5371 111.186 55.7035 110.6 56.9822C109.272 56.8513 107.824 56.7826 106.621 56.7826C86.76 56.7826 65.8516 72.0463 65.8516 98.1879C65.8516 120.344 84.3897 130.056 85.3937 130.767C86.0923 131.26 87.6642 132.414 87.6642 134.372V146.486C87.6642 149.979 89.049 153.228 91.5565 155.649C93.9954 158 97.2327 159.298 100.663 159.298L150.309 159.292C153.746 159.292 156.733 158.231 158.942 156.217C161.318 154.065 162.628 150.927 162.628 147.384V145.425C162.628 144.727 163.196 144.153 163.9 144.153H172.477H172.477Z" fill="white"/>
<path d="M159.47 123.398V117.217C159.47 115.57 158.135 114.241 156.495 114.241C154.854 114.241 153.519 115.57 153.519 117.217V123.398C153.519 125.045 154.854 126.374 156.495 126.374C158.135 126.374 159.47 125.045 159.47 123.398ZM177.594 93.2382L158.712 74.3457C157.584 73.163 156.761 71.6111 156.761 69.8846V48.6393C156.761 44.9591 153.673 41.9336 149.993 41.9336H136.595C132.922 41.9361 129.988 44.8992 129.988 48.5669V54.9792C129.988 55.7402 129.433 57.1062 127.792 57.1062H120.662C118.654 57.1062 116.57 58.6344 116.365 60.8425C116.202 62.5766 115.629 63.9364 112.653 63.4062C112.616 63.3997 112.578 63.3937 112.541 63.3872C112.472 63.3683 112.404 63.3623 112.335 63.3433L112.341 63.3498C110.276 62.9568 108.143 62.751 105.96 62.751C87.0972 62.751 71.8086 78.0396 71.8086 96.9081C71.8086 108.273 77.3476 118.335 85.8931 124.541L85.9121 124.553C86.3737 124.884 86.935 125.077 87.5463 125.077C88.5194 125.077 89.3739 124.578 89.8792 123.823L109.228 94.9997C109.228 94.9997 111.249 91.937 114.898 91.937H137.191C138.37 91.937 139.324 90.9889 139.324 89.81C139.324 89.6291 139.299 89.4482 139.256 89.2798C137.098 79.83 131.022 71.8709 122.832 67.2051C122.14 66.8371 121.672 66.1135 121.672 65.2839C121.672 64.0739 122.652 63.1008 123.855 63.1008H131.11C133.755 63.1008 135.982 60.9488 135.982 58.2417V50.0205C135.982 48.7792 136.973 47.8873 138.115 47.8873H148.731C149.835 47.8873 150.79 48.8104 150.79 50.0205V95.7237C150.79 96.8215 151.644 97.8694 152.917 97.8694H171.935C173.332 97.8694 174.068 99.0608 174.068 100.003V130.287C174.068 131.372 173.301 132.414 171.91 132.414H155.299C152.455 132.414 150.615 134.796 150.615 137.086L150.609 145.232C150.609 146.535 149.561 147.359 148.475 147.359H130.112V138.339C130.112 136.693 128.777 135.364 127.13 135.364C125.49 135.364 124.155 136.693 124.155 138.339V147.359H101.724C100.676 147.359 99.5974 146.585 99.5974 145.232V131.547C99.5974 130.293 100.62 129.42 101.724 129.42H127.685C128.964 129.42 130.037 127.885 130.037 127.885L147.907 101.219C148.918 99.6472 147.508 97.9006 146.236 97.9006H115.759C114.549 97.9006 114.037 98.7178 113.438 99.6534L95.1437 126.905C95.1437 126.905 93.6467 129.039 93.6467 131.546V146.485C93.6467 150.353 96.8154 153.341 100.689 153.341H151.707C153.984 153.341 156.585 151.563 156.585 148.482V140.485C156.585 139.574 157.271 138.364 158.712 138.364H172.429C176.296 138.364 180.001 135.027 180.001 130.998V98.8742C180.001 96.4041 178.991 94.6326 177.594 93.2414" fill="#1A468E"/>
<path d="M186.299 189C184.088 189 182.285 190.811 182.285 193.045C182.285 195.292 184.088 197.095 186.299 197.095C188.513 197.095 190.324 195.292 190.324 193.045C190.324 190.811 188.513 189 186.299 189ZM96.0946 189C93.8645 189 92.0757 190.811 92.0757 193.045C92.0757 195.292 93.8646 197.095 96.0946 197.095C98.3005 197.095 100.103 195.292 100.103 193.045C100.103 190.811 98.3003 189 96.0946 189ZM40.972 189.469V191.662H42.4903C43.3483 191.662 44.6149 192.641 44.6149 193.975V209.207C43.2319 207.287 30.4169 189.439 30.4169 189.439H20.1623V191.441H20.9444C21.1691 191.689 23.2341 194.149 23.4101 194.359V219.975C23.4101 221.786 21.1285 221.971 20.4168 221.971H20V224.044H31.5104V221.881H30.3683C29.1801 221.881 27.8216 220.73 27.8216 219.975V199.555C29.2344 201.475 46.5827 225 46.5827 225H48.9345V193.973C48.9345 192.392 49.7924 191.661 51.5677 191.661H52.0007V189.468H40.9719L40.972 189.469ZM73.4125 220.664C73.2663 220.855 72.974 220.825 72.7494 220.729C72.4138 220.612 72.0917 220.315 72.0917 219.976V206.189C72.0917 202.308 68.2568 199.712 62.6001 199.712C57.6502 199.712 55.1033 201.528 54.0235 202.619L53.9234 202.742V209.885H55.8125L55.8964 209.528C57.2171 203.356 60.6896 202.777 62.1158 202.794C63.3445 202.835 65.1604 203.953 65.1604 205.39V208.778C57.0303 211.08 53.0598 214.538 53.0598 219.376C53.0598 222.668 55.4198 224.894 58.9408 224.894C61.2196 224.894 63.3443 224.01 65.4309 222.319C65.8612 223.729 67.4878 224.809 69.4851 224.809C71.3282 224.809 72.9602 223.909 74.0995 222.259L74.178 222.175V219.747L73.412 220.664L73.4125 220.664ZM62.4189 220.386C61.7071 220.386 60.4622 219.802 60.4622 217.481C60.4622 215.223 62.473 212.997 65.109 212.127V218.594C64.4459 219.837 63.0115 220.386 62.4188 220.386L62.4189 220.386ZM88.9571 203.227V200.33H84.7052V191.955H82.9812L82.7755 192.26C81.3573 194.483 78.6916 198.656 75.5655 200.99L75.3977 201.116V203.27H77.766V219.255C77.766 222.79 80.3046 224.647 82.8595 224.647C85.1004 224.647 86.6106 224.227 88.1641 222.048L88.2399 221.947V219.935L87.6093 220.245C86.9868 220.559 86.2209 220.515 85.5713 220.15C85.0327 219.801 84.7053 219.288 84.7053 218.754V203.227H88.9572L88.9571 203.227ZM101.431 221.971C100.797 221.971 99.7092 221.442 99.7092 220.387V200.33H92.6101V220.351C92.6101 221.336 91.6033 222.015 90.6913 222.015H90.2826V224.107H101.839V221.971H101.43L101.431 221.971ZM113.688 199.581C108.605 199.581 103.092 204.367 103.092 212.105C103.092 222.12 110.123 224.743 113.809 224.743C118.01 224.743 124.18 220.952 124.18 212.787C124.18 205.259 119.682 199.581 113.688 199.581ZM116.819 212.841C116.819 221.659 114.673 221.659 113.753 221.659C112.445 221.659 110.494 221.659 110.494 212.642C110.494 203.464 112.153 202.709 113.688 202.709C115.155 202.709 116.819 203.841 116.819 212.841ZM149.34 221.972C147.997 221.972 147.735 221.4 147.735 220.584V206.923C147.735 203.364 145.491 199.641 141.38 199.641C138.573 199.641 136.517 200.614 135.033 202.434V200.317H125.739V202.308H126.757C126.784 202.308 128.01 202.537 128.01 203.644V220.219C128.01 221.38 126.955 222.013 125.988 222.098L125.612 222.12V224.045H137.309V222.084H136.89C135.864 222.084 135.106 221.26 135.106 220.219V206.595C135.106 205.875 136.741 203.764 138.389 203.764C139.816 203.764 140.511 204.792 140.511 206.797V220.655C140.511 221.214 139.531 222.016 138.86 222.016H138.422V224.045H149.765V221.972H149.34L149.34 221.972ZM173.641 200.376V202.249H174.053C174.58 202.249 175.241 202.432 175.533 202.838C175.638 203.013 175.706 203.182 175.706 203.365C175.706 203.501 175.689 203.618 175.639 203.763C175.333 204.898 173.46 210.505 172.578 213.126C171.874 210.404 170.353 204.469 170.172 203.667C170.145 203.567 170.134 203.474 170.134 203.357C170.134 203.157 170.174 202.931 170.31 202.743C170.591 202.432 171.092 202.249 171.793 202.249H172.245V200.332H161.135V202.309H161.555C162.031 202.309 162.805 202.421 163.032 203.046C163.032 203.046 163.901 205.909 163.98 206.171C163.901 206.436 161.877 211.803 161.281 213.453C160.459 211.102 158.572 205.648 157.993 204.216C157.912 203.954 157.798 203.618 157.798 203.302C157.798 203.097 157.877 202.923 157.966 202.718C158.172 202.432 158.602 202.249 159.089 202.249H159.536V200.245H148.994V202.115L149.232 202.222C149.481 202.309 150.109 202.628 150.35 203.046C150.62 203.618 155.14 216.142 158.104 224.417L158.201 224.693H160.629C160.629 224.693 164.702 213.287 165.424 211.244C166.044 213.3 169.508 224.693 169.508 224.693H171.814L178.843 204.445C179.414 202.857 179.944 202.184 180.67 202.184H181.105V200.376H173.641L173.641 200.376ZM191.629 221.972C191.015 221.972 189.916 221.443 189.916 220.388V200.331H182.823V220.352C182.823 221.337 181.824 222.016 180.904 222.016H180.501V224.108H192.063V221.972H191.63L191.629 221.972ZM215.65 222.083C214.678 222.083 213.98 221.038 213.98 220.095V189.47H203.647V191.537H205.105C205.693 191.537 207.084 192.121 207.084 193.182V201.658C206.169 200.747 204.553 199.528 202.126 199.528C198.605 199.528 193.073 203.047 193.073 212.595C193.073 222.22 198.594 224.743 201.506 224.743C204.245 224.743 205.92 223.731 206.965 222.61V224.047H216.083V222.084H215.65L215.65 222.083ZM207.022 206.387V218.12C207.022 218.851 204.924 220.998 203.809 220.998C201.024 220.998 200.439 216.486 200.439 212.643C200.439 204.551 202.182 203.474 203.915 203.474C205.622 203.474 206.859 206.027 207.022 206.387ZM236 211.946C236 203.358 231.532 199.528 227.093 199.528C223.742 199.528 217.434 202.185 217.434 212.35C217.434 224.481 226.208 224.811 227.231 224.811C230.99 224.811 233.778 222.561 235.429 220.682L235.637 220.472L234.739 218.603L234.311 218.917C234.311 218.917 232.073 220.562 229.775 220.562C225.491 220.562 224.592 217.559 224.522 212.36H236V211.946L236 211.946ZM224.522 209.131C224.592 203.644 225.613 202.536 227.331 202.536C229.529 202.536 229.759 205.239 229.775 209.131H224.522H224.522Z" fill="white"/>
<rect y="231" width="256" height="25" fill="#ED1C24"/>
</svg>

<svg xmlns="http://www.w3.org/2000/svg" viewBox="0 0 256 256"><path fill="#1A468E" d="M0 0h256v256H0z"/><path fill="#fff" d="M172.477 144.153c3.381 0 6.787-1.385 9.332-3.805 2.663-2.526 4.191-5.994 4.191-9.512V98.687c0-3.823-1.378-7.141-4.092-9.843l-17.976-17.989a3.7 3.7 0 0 1-1.179-2.713V48.637c0-3.381-1.341-6.568-3.774-8.97-2.414-2.377-5.589-3.687-8.951-3.687H135.9c-6.905 0-12.525 5.677-12.525 12.656v1.06h-.007a1.27 1.27 0 0 1-1.272 1.236v.006h-2.109c-2.42 0-4.902.954-6.817 2.626a10.2 10.2 0 0 0-2.57 3.418c-1.328-.13-2.776-.2-3.979-.2-19.861 0-40.77 15.264-40.77 41.406 0 22.156 18.539 31.868 19.543 32.579.698.493 2.27 1.647 2.27 3.605v12.114c0 3.493 1.385 6.742 3.892 9.163 2.44 2.351 5.677 3.649 9.107 3.649l49.646-.006c3.437 0 6.424-1.061 8.633-3.075 2.376-2.152 3.686-5.29 3.686-8.833v-1.959c0-.698.568-1.272 1.272-1.272z"/><path fill="#1A468E" d="M159.47 123.398v-6.181a2.975 2.975 0 1 0-5.951 0v6.181a2.975 2.975 0 1 0 5.951 0m18.124-30.16-18.882-18.892c-1.128-1.183-1.951-2.735-1.951-4.461V48.639c0-3.68-3.088-6.705-6.768-6.705h-13.398a6.604 6.604 0 0 0-6.607 6.633v6.412c0 .761-.555 2.127-2.196 2.127h-7.13c-2.008 0-4.092 1.528-4.297 3.736-.163 1.735-.736 3.094-3.712 2.564l-.112-.019c-.069-.019-.137-.025-.206-.044l.006.007a34 34 0 0 0-6.381-.599c-18.863 0-34.151 15.289-34.151 34.157 0 11.365 5.539 21.427 14.084 27.633l.02.012a2.803 2.803 0 0 0 3.967-.73L109.227 95s2.021-3.063 5.67-3.063h22.293a2.127 2.127 0 0 0 2.065-2.657c-2.158-9.45-8.234-17.41-16.424-22.075a2.18 2.18 0 0 1-1.16-1.921c0-1.21.98-2.183 2.183-2.183h7.255c2.645 0 4.872-2.152 4.872-4.86v-8.22c0-1.242.991-2.134 2.133-2.134h10.616c1.104 0 2.059.923 2.059 2.133v45.704c0 1.097.854 2.145 2.127 2.145h19.018c1.397 0 2.133 1.192 2.133 2.134v30.284c0 1.085-.767 2.127-2.158 2.127h-16.611c-2.844 0-4.684 2.382-4.684 4.672l-.006 8.146c0 1.303-1.048 2.127-2.134 2.127h-18.363v-9.02a2.977 2.977 0 0 0-2.982-2.975 2.975 2.975 0 0 0-2.975 2.975v9.02h-22.431c-1.048 0-2.127-.774-2.127-2.127v-13.685c0-1.254 1.023-2.127 2.127-2.127h25.961c1.279 0 2.352-1.535 2.352-1.535l17.87-26.666c1.011-1.572-.399-3.318-1.671-3.318h-30.477c-1.21 0-1.722.817-2.321 1.752l-18.294 27.252s-1.497 2.134-1.497 4.641v14.939c0 3.868 3.168 6.856 7.042 6.856h51.018c2.277 0 4.878-1.778 4.878-4.859v-7.997c0-.911.686-2.121 2.127-2.121h13.717c3.867 0 7.572-3.337 7.572-7.366V98.874c0-2.47-1.01-4.241-2.407-5.633"/><path fill="#fff" d="M186.299 189c-2.211 0-4.014 1.811-4.014 4.045 0 2.247 1.803 4.05 4.014 4.05 2.214 0 4.025-1.803 4.025-4.05 0-2.234-1.811-4.045-4.025-4.045m-90.204 0c-2.23 0-4.02 1.811-4.02 4.045 0 2.247 1.79 4.05 4.02 4.05 2.206 0 4.008-1.803 4.008-4.05 0-2.234-1.803-4.045-4.008-4.045m-55.123.469v2.193h1.518c.858 0 2.125.979 2.125 2.313v15.232c-1.383-1.92-14.198-19.768-14.198-19.768H20.162v2.002h.782c.225.248 2.29 2.708 2.466 2.918v25.616c0 1.811-2.282 1.996-2.993 1.996H20v2.073h11.51v-2.163h-1.142c-1.188 0-2.546-1.151-2.546-1.906v-20.42c1.412 1.92 18.76 25.445 18.76 25.445h2.352v-31.027c0-1.581.858-2.312 2.634-2.312H52v-2.193H40.97zm32.44 31.195c-.146.191-.438.161-.663.065-.335-.117-.657-.414-.657-.753v-13.787c0-3.881-3.835-6.477-9.492-6.477-4.95 0-7.497 1.816-8.577 2.907l-.1.123v7.143h1.89l.083-.357c1.321-6.172 4.794-6.751 6.22-6.734 1.228.041 3.044 1.159 3.044 2.596v3.388c-8.13 2.302-12.1 5.76-12.1 10.598 0 3.292 2.36 5.518 5.88 5.518 2.28 0 4.404-.884 6.49-2.575.431 1.41 2.058 2.49 4.055 2.49 1.843 0 3.475-.9 4.615-2.55l.078-.084v-2.428zm-10.993-.278c-.712 0-1.957-.584-1.957-2.905 0-2.258 2.011-4.484 4.647-5.354v6.467c-.663 1.243-2.097 1.792-2.69 1.792m26.538-17.159v-2.897h-4.252v-8.375h-1.724l-.206.305c-1.418 2.223-4.083 6.396-7.21 8.73l-.167.126v2.154h2.368v15.985c0 3.535 2.539 5.392 5.093 5.392 2.241 0 3.752-.42 5.305-2.599l.076-.101v-2.012l-.63.31c-.623.314-1.39.27-2.039-.095-.538-.349-.866-.862-.866-1.396v-15.527zm12.474 18.744c-.634 0-1.722-.529-1.722-1.584V200.33H92.61v20.021c0 .985-1.007 1.664-1.919 1.664h-.408v2.092h11.556v-2.136zm12.257-22.39c-5.083 0-10.596 4.786-10.596 12.524 0 10.015 7.031 12.638 10.717 12.638 4.201 0 10.371-3.791 10.371-11.956 0-7.528-4.498-13.206-10.492-13.206m3.131 13.26c0 8.818-2.146 8.818-3.066 8.818-1.308 0-3.259 0-3.259-9.017 0-9.178 1.659-9.933 3.194-9.933 1.467 0 3.131 1.132 3.131 10.132m32.521 9.131c-1.343 0-1.605-.572-1.605-1.388v-13.661c0-3.559-2.244-7.282-6.355-7.282-2.807 0-4.863.973-6.347 2.793v-2.117h-9.294v1.991h1.018c.027 0 1.253.229 1.253 1.336v16.575c0 1.161-1.055 1.794-2.022 1.879l-.376.022v1.925h11.697v-1.961h-.419c-1.026 0-1.784-.824-1.784-1.865v-13.624c0-.72 1.635-2.831 3.283-2.831 1.427 0 2.122 1.028 2.122 3.033v13.858c0 .559-.98 1.361-1.651 1.361h-.438v2.029h11.343v-2.073zm24.301-21.596v1.873h.412c.527 0 1.188.183 1.48.589.105.175.173.344.173.527 0 .136-.017.253-.067.398-.306 1.135-2.179 6.742-3.061 9.363-.704-2.722-2.225-8.657-2.406-9.459a1.1 1.1 0 0 1-.038-.31c0-.2.04-.426.176-.614.281-.311.782-.494 1.483-.494h.452v-1.917h-11.11v1.977h.42c.476 0 1.25.112 1.477.737l.948 3.125c-.079.265-2.103 5.632-2.699 7.282-.822-2.351-2.709-7.805-3.288-9.237-.081-.262-.195-.598-.195-.914 0-.205.079-.379.168-.584.206-.286.636-.469 1.123-.469h.447v-2.004h-10.542v1.87l.238.107c.249.087.877.406 1.118.824.27.572 4.79 13.096 7.754 21.371l.097.276h2.428s4.073-11.406 4.795-13.449c.62 2.056 4.084 13.449 4.084 13.449h2.306l7.029-20.248c.571-1.588 1.101-2.261 1.827-2.261h.435v-1.808zm17.988 21.596c-.614 0-1.713-.529-1.713-1.584v-20.057h-7.093v20.021c0 .985-.999 1.664-1.919 1.664h-.403v2.092h11.562v-2.136zm24.021.111c-.972 0-1.67-1.045-1.67-1.988V189.47h-10.333v2.067h1.458c.588 0 1.979.584 1.979 1.645v8.476c-.915-.911-2.531-2.13-4.958-2.13-3.521 0-9.053 3.519-9.053 13.067 0 9.625 5.521 12.148 8.433 12.148 2.739 0 4.414-1.012 5.459-2.133v1.437h9.118v-1.963h-.433zm-8.628-15.696v11.733c0 .731-2.098 2.878-3.213 2.878-2.785 0-3.37-4.512-3.37-8.355 0-8.092 1.743-9.169 3.476-9.169 1.707 0 2.944 2.553 3.107 2.913M236 211.946c0-8.588-4.468-12.418-8.907-12.418-3.351 0-9.659 2.657-9.659 12.822 0 12.131 8.774 12.461 9.797 12.461 3.759 0 6.547-2.25 8.198-4.129l.208-.21-.898-1.869-.428.314s-2.238 1.645-4.536 1.645c-4.284 0-5.183-3.003-5.253-8.202H236zm-11.478-2.815c.07-5.487 1.091-6.595 2.809-6.595 2.198 0 2.428 2.703 2.444 6.595z"/><path fill="#ED1C24" d="M0 231h256v25H0z"/></svg>
